X: 43321
T: Woodward's Rant
R: slip jig
M: 9/8
K: Gmajor
|:B2 G GBG dBG|B2 G GBG AFD|B2 G GBG dBG|c/d/ec A/B/cA F2 D:|
|:B2 d- def gdc|B2 d- d-d/e/f/g/ afd|B2 d- def gfe|dcB A/B/cA F2 D:|
|:B2 G Bdg dBG|B2 G FAd AFD|B2 G Bde/f/ gfe|dcB A/B/cA F2 D:|
|:B2 G GDB, GDB,|B2 G FDA, FDA,|B2 G GDB, GDB,|dcB A/B/cA F2 D:|

